<?xml version="1.0" encoding="UTF-8"?>
<map version="1.10" tiledversion="1.12.2" orientation="orthogonal" renderorder="right-down" width="70" height="10" tilewidth="128" tileheight="128" infinite="0" nextlayerid="3" nextobjectid="5">
 <tileset firstgid="1" source="pixil-frame-0 22.tsx"/>
 <layer id="1" name="Kachelebene 1" width="70" height="10">
  <data encoding="csv">
3,3,3,3,3,3,3,3,3,3,3,3,3,3,3,3,3,4,5,6,7,7,7,7,3,3,3,3,3,3,3,3,3,3,3,3,3,3,3,3,3,3,3,3,3,3,3,3,3,4,5,3,3,3,3,3,3,3,3,3,3,3,3,3,3,3,3,3,3,3,
19,19,19,19,19,19,19,19,19,19,19,19,19,19,19,19,19,20,21,22,23,23,23,23,19,19,19,19,19,19,19,19,19,19,19,19,19,19,19,19,19,19,19,19,19,19,19,19,19,20,21,19,19,19,19,19,19,19,19,19,19,19,19,19,19,19,19,19,19,19,
104,124,96,128,83,125,120,116,117,116,87,123,69,118,68,94,90,79,122,84,70,115,69,70,68,104,83,71,75,101,115,79,90,124,73,91,91,80,68,92,102,105,106,101,72,69,102,71,80,127,125,100,94,71,91,124,120,107,88,86,120,116,117,84,106,80,79,74,68,77,
93,67,88,85,122,112,74,72,85,90,126,123,72,80,70,128,120,122,90,124,68,126,104,92,104,100,71,100,70,117,71,120,102,107,91,119,110,121,70,99,80,76,118,90,105,107,124,116,99,120,96,102,115,101,125,68,119,102,70,68,120,123,79,72,84,70,127,103,123,122,
116,117,78,100,91,90,74,120,75,94,110,128,92,68,109,108,74,124,76,102,112,84,88,86,102,123,93,72,105,127,122,69,67,85,87,71,93,74,92,85,107,118,67,99,67,74,128,94,111,80,93,109,105,94,105,91,103,105,86,69,107,122,92,123,122,75,67,105,75,91,
49,50,51,52,53,54,55,56,57,90,103,49,50,51,52,53,54,55,56,57,108,49,50,51,52,53,54,55,56,57,115,49,50,51,52,53,54,55,56,57,70,70,49,50,51,52,53,54,55,56,57,124,111,49,50,51,52,53,54,55,56,57,106,49,50,51,52,53,54,55,
124,95,112,69,70,107,93,67,95,123,78,68,115,77,95,74,69,104,128,106,70,68,101,121,77,78,79,93,124,92,116,125,119,94,107,105,68,88,95,105,67,126,76,83,103,122,74,110,76,90,100,92,78,124,78,100,116,69,74,96,71,118,87,119,107,127,101,78,118,85,
127,78,70,124,67,86,107,111,123,79,89,104,121,77,103,112,83,124,79,102,119,70,103,70,71,77,124,70,74,119,79,128,68,79,92,88,77,102,67,102,86,77,90,116,70,105,112,91,68,92,68,102,124,69,109,103,100,90,84,77,68,107,116,122,101,90,124,107,123,107,
3,3,3,3,3,3,3,3,3,3,3,3,3,3,3,3,3,3,3,3,3,4,5,6,7,3,3,3,3,3,3,3,3,3,3,3,3,3,3,4,5,6,7,5,6,7,7,7,7,7,7,7,7,7,7,7,7,7,7,7,7,7,7,7,7,7,7,7,7,7,
19,19,19,19,19,19,19,19,19,19,19,19,19,19,19,19,19,19,19,19,19,20,21,22,23,19,19,19,19,19,19,19,19,19,19,19,19,19,19,20,21,22,23,21,22,23,23,23,23,23,23,23,23,23,23,23,23,23,23,23,23,23,23,23,23,23,23,23,23,23
</data>
 </layer>
 <objectgroup id="2" name="Objektebene 1">
  <object id="1" x="-5.47345" y="-27.3673" width="7093.6" height="131.363"/>
  <object id="2" x="-30.9917" y="-20.6612" width="9845.04" height="61.9835"/>
  <object id="3" x="10.3306" y="1198.35" width="9514.46" height="289.256"/>
  <object id="4" x="5506.2" y="-588.843"/>
 </objectgroup>
</map>
