<?xml version="1.0" encoding="UTF-8"?>
<map version="1.10" tiledversion="1.12.2" orientation="orthogonal" renderorder="right-down" width="40" height="25" tilewidth="32" tileheight="32" infinite="0" nextlayerid="4" nextobjectid="47">
 <tileset firstgid="1" source="../../../tileset.tsx"/>
 <tileset firstgid="5254" source="tileset2.tsx"/>
 <layer id="1" name="Kachelebene 1" width="40" height="25">
  <data encoding="csv">
5314,5315,5256,5257,5258,5259,5260,5261,5262,5254,5255,5256,5257,5258,5259,5260,5261,5262,5254,5255,5256,5257,5258,5259,5254,5255,5256,5257,5258,5259,5260,5261,5254,5255,5256,5257,5312,5313,5314,5315,
5345,5346,5287,5288,5289,5290,5291,5292,5293,5285,5286,5287,5288,5289,5290,5291,5292,5293,5285,5286,5287,5288,5289,5290,5285,5286,5287,5288,5289,5290,5291,5292,5285,5286,5287,5288,5343,5344,5345,5346,
5376,5377,5318,5319,5320,5321,5322,5323,5324,5316,5317,5318,5319,5320,5321,5322,5323,5324,5316,5317,5318,5319,5320,5321,5316,5317,5318,5319,5320,5321,5322,5323,5316,5317,5318,5319,5374,5375,5376,5377,
5407,5408,5570,5571,5572,5570,5571,5568,5569,5570,5571,5572,5570,5571,5572,5570,5571,5572,5568,5569,5570,5571,5572,5568,5569,5570,5571,5572,5536,5537,5568,5569,5570,5571,5572,5254,5405,5406,5407,5408,
5438,5439,5570,5571,5572,5570,5537,5538,5539,5540,5541,5572,5570,5571,5572,5570,5571,5572,5568,5569,5570,5571,5572,5568,5569,5570,5571,5572,5536,5537,5568,5569,5570,5571,5572,5538,5436,5437,5438,5439,
5469,5470,5570,5571,5572,5570,5568,5569,5570,5571,5572,5572,5572,5568,5569,5570,5571,5572,5568,5569,5570,5571,5572,5568,5569,5570,5571,5572,5536,5537,5568,5569,5570,5571,5572,5539,5467,5468,5469,5470,
5500,5501,5285,5286,5287,5288,5256,5257,5291,5292,5293,5285,5286,5287,5288,5289,5290,5291,5292,5293,5314,5315,5572,5568,5569,5570,5571,5254,5255,5256,5257,5258,5259,5260,5261,5262,5498,5499,5500,5501,
5531,5532,5316,5317,5318,5319,5287,5288,5322,5323,5324,5316,5317,5318,5319,5320,5321,5322,5323,5324,5345,5346,5572,5568,5569,5570,5254,5285,5286,5287,5288,5289,5290,5291,5292,5293,5529,5530,5531,5532,
5562,5563,5254,5255,5256,5257,5318,5319,5570,5571,5572,5572,5572,5568,5569,5570,5571,5572,5568,5254,5376,5377,5572,5568,5569,5570,5314,5315,5254,5537,5568,5569,5570,5571,5572,5537,5560,5561,5562,5563,
5593,5594,5285,5286,5287,5288,5571,5568,5569,5570,5571,5572,5572,5568,5569,5570,5571,5572,5312,5313,5314,5315,5572,5568,5569,5570,5345,5346,5537,5538,5568,5569,5570,5571,5572,5568,5591,5592,5593,5594,
5314,5315,5316,5317,5318,5523,5524,5525,5462,5570,5571,5572,5572,5568,5569,5570,5571,5572,5312,5313,5314,5315,5572,5568,5569,5570,5376,5377,5537,5538,5568,5569,5570,5571,5572,5568,5622,5623,5624,5625,
5345,5346,5254,5255,5572,5554,5555,5556,5493,5570,5571,5572,5572,5568,5569,5570,5571,5572,5343,5344,5345,5346,5572,5568,5569,5570,5407,5408,5537,5538,5568,5569,5570,5571,5572,5568,5653,5654,5655,5656,
5376,5377,5285,5286,5572,5570,5571,5568,5524,5570,5571,5572,5572,5568,5569,5570,5523,5524,5374,5375,5376,5377,5572,5568,5569,5570,5438,5439,5538,5539,5568,5569,5570,5571,5572,5568,5684,5685,5686,5687,
5407,5408,5254,5255,5462,5462,5463,5464,5260,5261,5262,5254,5255,5256,5523,5523,5523,5524,5405,5406,5407,5408,5572,5568,5569,5570,5469,5470,5538,5539,5568,5569,5570,5571,5572,5254,5715,5716,5717,5718,
5314,5315,5285,5286,5256,5257,5258,5290,5291,5292,5293,5523,5524,5525,5526,5554,5523,5524,5436,5437,5438,5439,5572,5568,5569,5570,5500,5501,5538,5537,5568,5285,5286,5287,5288,5289,5290,5291,5292,5293,
5345,5260,5261,5262,5287,5288,5289,5568,5569,5570,5571,5554,5555,5556,5557,5572,5554,5555,5467,5468,5469,5470,5572,5568,5569,5570,5531,5532,5538,5568,5568,5316,5317,5318,5319,5320,5321,5322,5323,5324,
5376,5291,5292,5293,5572,5569,5570,5568,5569,5570,5571,5572,5572,5570,5571,5572,5535,5536,5498,5499,5500,5501,5572,5568,5569,5570,5562,5563,5537,5568,5568,5347,5348,5349,5350,5351,5352,5353,5354,5355,
5407,5322,5323,5324,5572,5569,5570,5568,5569,5570,5571,5572,5572,5570,5571,5572,5566,5535,5312,5313,5314,5571,5572,5568,5569,5570,5571,5314,5568,5569,5568,5569,5262,5255,5256,5257,5258,5259,5260,5261,
5262,5260,5261,5262,5572,5569,5570,5568,5569,5570,5571,5572,5572,5570,5571,5572,5597,5566,5374,5569,5570,5571,5572,5568,5569,5570,5571,5572,5568,5569,5568,5569,5570,5286,5287,5288,5289,5290,5291,5292,
5293,5291,5292,5293,5572,5569,5570,5571,5572,5569,5570,5571,5572,5570,5571,5572,5628,5597,5568,5569,5570,5571,5572,5568,5569,5570,5571,5572,5569,5570,5568,5569,5570,5571,5572,5569,5570,5571,5568,5569,
5324,5322,5323,5324,5572,5569,5570,5571,5572,5569,5570,5571,5572,5570,5571,5572,5632,5628,5568,5569,5570,5571,5572,5568,5569,5570,5571,5572,5569,5570,5568,5569,5570,5571,5572,5569,5570,5571,5568,5569,
5531,5532,5347,5348,5256,5257,5258,5571,5572,5569,5570,5571,5572,5570,5571,5572,5632,5535,5568,5569,5570,5571,5572,5568,5569,5570,5571,5572,5569,5570,5568,5569,5570,5571,5572,5569,5570,5571,5568,5258,
5562,5563,5285,5286,5287,5288,5289,5254,5572,5569,5570,5571,5572,5570,5571,5572,5632,5535,5568,5569,5570,5571,5572,5568,5569,5570,5571,5572,5569,5570,5568,5569,5570,5571,5572,5258,5258,5259,5262,5262,
5593,5594,5254,5255,5256,5257,5258,5259,5260,5261,5262,5254,5255,5256,5257,5258,5259,5260,5254,5255,5256,5257,5258,5259,5260,5254,5255,5256,5257,5258,5259,5260,5254,5255,5256,5257,5258,5259,5260,5261,
5624,5625,5285,5286,5287,5288,5289,5290,5291,5292,5293,5285,5286,5287,5288,5289,5290,5291,5285,5286,5287,5288,5289,5290,5291,5285,5286,5287,5288,5289,5290,5291,5285,5286,5287,5288,5289,5290,5291,5292
</data>
 </layer>
 <objectgroup id="2" name="Objektebene 1">
  <object id="1" x="0" y="-32" width="1280" height="128"/>
  <object id="2" x="1120" y="96" width="224" height="32"/>
  <object id="3" x="1152" y="128" width="128" height="480"/>
  <object id="4" x="992" y="448" width="288" height="96"/>
  <object id="5" x="1024" y="544" width="256" height="32"/>
  <object id="6" x="1088" y="608"/>
  <object id="7" x="1056" y="576" width="128" height="32"/>
  <object id="8" x="1120" y="416" width="32" height="32"/>
  <object id="9" x="832" y="224" width="64" height="320"/>
  <object id="10" x="864" y="192" width="64" height="96"/>
  <object id="11" x="960" y="256"/>
  <object id="12" x="928" y="192" width="256" height="64"/>
  <object id="13" x="864" y="544" width="32" height="32"/>
  <object id="14" x="-32" y="736" width="1312" height="64"/>
  <object id="15" x="0" y="192" width="128" height="544"/>
  <object id="16" x="0" y="96" width="64" height="96"/>
  <object id="17" x="128" y="192" width="576" height="64"/>
  <object id="18" x="608" y="256" width="96" height="288"/>
  <object id="19" x="576" y="288" width="96" height="288"/>
  <object id="20" x="576" y="576" width="32" height="32"/>
  <object id="21" x="256" y="416" width="192" height="32"/>
  <object id="22" x="128" y="448" width="224" height="32"/>
  <object id="23" x="128" y="480" width="96" height="32"/>
  <object id="24" x="128" y="224" width="32" height="128"/>
  <object id="25" x="160" y="256" width="32" height="64"/>
  <object id="26" x="192" y="256" width="64" height="32"/>
  <object id="27" x="128" y="672" width="96" height="64"/>
  <object id="28" x="224" y="704" width="32" height="32"/>
  <object id="29" x="857.839" y="965.721"/>
 </objectgroup>
</map>
