<?xml version="1.0" encoding="UTF-8"?>
<map version="1.10" tiledversion="1.12.2" orientation="orthogonal" renderorder="right-down" width="70" height="10" tilewidth="160" tileheight="160" infinite="0" nextlayerid="3" nextobjectid="6">
 <editorsettings>
  <export format="tmx"/>
 </editorsettings>
 <tileset firstgid="1" source="../../../../bgroad1.tsx"/>
 <tileset firstgid="82" source="../../../../pixil-frame-0 13.tsx"/>
 <tileset firstgid="244" source="pixil-frame-0 18.tsx"/>
 <tileset firstgid="380" source="pixil-frame-0 19.tsx"/>
 <tileset firstgid="516" source="pixil-frame-0 20.tsx"/>
 <layer id="1" name="Kachelebene 1" width="70" height="10">
  <data encoding="csv">
651,7,3,3,606,607,608,193,193,193,193,624,625,193,193,193,511,515,193,193,193,3,3,3,643,644,3,471,472,3,3,3,3,626,627,628,626,627,624,625,6,7,606,607,608,3,4,5,624,625,193,609,610,638,639,638,639,640,607,608,643,644,638,639,640,647,648,3,606,607,
10,11,12,13,14,15,16,17,18,14,18,12,14,18,13,14,15,16,17,18,12,12,12,12,12,12,12,12,14,18,14,14,14,13,14,15,16,17,18,14,14,12,14,18,14,14,18,12,18,12,12,12,12,12,12,14,14,14,18,18,18,14,14,18,14,12,12,12,12,12,
40,40,40,40,40,40,40,40,40,40,40,40,40,40,40,40,40,40,40,40,40,40,40,40,40,40,40,40,40,40,40,40,40,40,40,40,40,40,40,40,40,40,40,40,40,40,40,40,40,40,40,40,40,40,40,40,40,40,40,40,40,40,30,30,30,30,30,30,30,30,
40,40,134,40,40,40,40,40,40,40,40,40,40,40,40,40,40,40,40,40,40,40,40,40,40,40,30,30,30,30,40,40,40,40,40,40,40,40,40,40,40,40,40,40,40,40,40,40,40,40,40,40,40,40,40,40,40,40,40,40,40,40,40,40,40,40,40,40,40,40,
40,40,40,134,40,40,40,40,40,40,40,40,40,40,40,40,40,40,30,30,30,30,30,30,40,40,40,40,40,40,40,40,40,40,40,40,40,40,40,40,40,30,30,30,30,30,30,30,30,40,40,40,40,40,42,42,42,42,42,42,42,30,30,30,30,30,30,40,40,40,
40,40,40,40,40,40,40,40,40,40,40,40,40,40,40,40,40,40,40,40,40,40,40,40,40,40,40,40,40,40,40,40,40,40,40,40,40,40,40,40,40,40,40,42,42,42,42,42,42,42,42,40,30,30,30,30,30,30,40,40,40,40,40,40,40,40,40,40,40,40,
40,40,40,40,40,134,40,134,40,40,40,40,40,40,40,40,40,134,40,30,30,30,30,30,30,30,30,30,30,30,30,30,30,40,30,40,40,40,40,40,40,40,40,40,40,40,40,40,40,40,40,40,40,40,40,40,40,40,40,42,42,42,42,30,30,30,30,30,30,30,
129,134,40,40,40,40,40,40,40,40,40,40,40,40,40,40,40,40,30,30,30,30,30,30,30,40,40,40,40,40,30,30,30,30,30,30,30,30,30,40,40,40,40,40,40,40,40,30,30,30,30,30,30,30,30,150,150,152,40,40,40,40,40,40,30,30,30,40,40,40,
73,74,75,76,76,76,76,74,75,76,76,76,79,80,81,76,74,75,76,76,76,79,80,81,74,75,76,76,76,79,80,81,75,76,76,76,79,80,81,76,76,79,80,81,74,75,76,76,76,79,80,81,76,74,75,76,76,76,79,80,81,76,74,75,76,76,76,79,80,81,
193,193,193,193,193,4,5,193,193,193,193,193,193,193,193,193,193,194,194,4,5,193,193,193,193,193,193,193,193,193,193,193,193,193,194,194,4,5,194,194,194,194,194,194,194,194,194,194,194,194,194,194,194,194,194,194,194,194,194,193,193,193,4,5,193,193,193,193,193,9
</data>
 </layer>
</map>
