<?xml version="1.0" encoding="UTF-8"?>
<map version="1.10" tiledversion="1.12.2" orientation="orthogonal" renderorder="right-down" width="40" height="25" tilewidth="32" tileheight="32" infinite="0" nextlayerid="4" nextobjectid="47">
 <tileset firstgid="1" source="tileset.tsx"/>
 <tileset firstgid="466" source="tileset2.tsx"/>
 <layer id="1" name="Kachelebene 1" width="40" height="25">
  <data encoding="csv">
526,527,468,469,470,471,472,473,474,466,467,468,469,470,471,472,473,474,466,467,468,469,470,471,466,467,468,469,470,471,472,473,466,467,468,469,524,525,526,527,
557,558,499,500,501,502,503,504,505,497,498,499,500,501,502,503,504,505,497,498,499,500,501,502,497,498,499,500,501,502,503,504,497,498,499,500,555,556,557,558,
588,589,530,531,532,533,534,535,536,528,529,530,531,532,533,534,535,536,528,529,530,531,532,533,528,529,530,531,532,533,534,535,528,529,530,531,586,587,588,589,
619,620,782,783,784,782,783,780,781,782,783,784,782,783,784,782,783,784,780,781,782,783,784,780,781,782,783,784,748,749,780,781,782,783,784,466,617,618,619,620,
650,651,782,783,784,782,749,750,751,752,753,784,782,783,784,782,783,784,780,781,782,783,784,780,781,782,783,784,748,749,780,781,782,783,784,750,648,649,650,651,
681,682,782,783,784,782,780,781,782,783,784,784,784,780,781,782,783,784,780,781,782,783,784,780,781,782,783,784,748,749,780,781,782,783,784,751,679,680,681,682,
712,713,497,498,499,500,468,469,503,504,505,497,498,499,500,501,502,503,504,505,526,527,784,780,781,782,783,466,467,468,469,470,471,472,473,474,710,711,712,713,
743,744,528,529,530,531,499,500,534,535,536,528,529,530,531,532,533,534,535,536,557,558,784,780,781,782,466,497,498,499,500,501,502,503,504,505,741,742,743,744,
774,775,466,467,468,469,530,531,782,783,784,784,784,780,781,782,783,784,780,466,588,589,784,780,781,782,526,527,466,749,780,781,782,783,784,749,772,773,774,775,
805,806,497,498,499,500,783,780,781,782,783,784,784,780,781,782,783,784,524,525,526,527,784,780,781,782,557,558,749,750,780,781,782,783,784,780,803,804,805,806,
526,527,528,529,530,735,736,737,674,782,783,784,784,780,781,782,783,784,524,525,526,527,784,780,781,782,588,589,749,750,780,781,782,783,784,780,834,835,836,837,
557,558,466,467,784,766,767,768,705,782,783,784,784,780,781,782,783,784,555,556,557,558,784,780,781,782,619,620,749,750,780,781,782,783,784,780,865,866,867,868,
588,589,497,498,784,782,783,780,736,782,783,784,784,780,781,782,735,736,586,587,588,589,784,780,781,782,650,651,750,751,780,781,782,783,784,780,896,897,898,899,
619,620,466,467,674,674,675,676,472,473,474,466,467,468,735,735,735,736,617,618,619,620,784,780,781,782,681,682,750,751,780,781,782,783,784,466,927,928,929,930,
526,527,497,498,468,469,470,502,503,504,505,735,736,737,738,766,735,736,648,649,650,651,784,780,781,782,712,713,750,749,780,497,498,499,500,501,502,503,504,505,
557,472,473,474,499,500,501,780,781,782,783,766,767,768,769,784,766,767,679,680,681,682,784,780,781,782,743,744,750,780,780,528,529,530,531,532,533,534,535,536,
588,503,504,505,784,781,782,780,781,782,783,784,784,782,783,784,747,748,710,711,712,713,784,780,781,782,774,775,749,780,780,559,560,561,562,563,564,565,566,567,
619,534,535,536,784,781,782,780,781,782,783,784,784,782,783,784,778,747,524,525,526,783,784,780,781,782,783,526,780,781,780,781,474,467,468,469,470,471,472,473,
474,472,473,474,784,781,782,780,781,782,783,784,784,782,783,784,809,778,586,781,782,783,784,780,781,782,783,784,780,781,780,781,782,498,499,500,501,502,503,504,
505,503,504,505,784,781,782,783,784,781,782,783,784,782,783,784,840,809,780,781,782,783,784,780,781,782,783,784,781,782,780,781,782,783,784,781,782,783,780,781,
536,534,535,536,784,781,782,783,784,781,782,783,784,782,783,784,844,840,780,781,782,783,784,780,781,782,783,784,781,782,780,781,782,783,784,781,782,783,780,781,
743,744,559,560,468,469,470,783,784,781,782,783,784,782,783,784,844,747,780,781,782,783,784,780,781,782,783,784,781,782,780,781,782,783,784,781,782,783,780,470,
774,775,497,498,499,500,501,466,784,781,782,783,784,782,783,784,844,747,780,781,782,783,784,780,781,782,783,784,781,782,780,781,782,783,784,470,470,471,474,474,
805,806,466,467,468,469,470,471,472,473,474,466,467,468,469,470,471,472,466,467,468,469,470,471,472,466,467,468,469,470,471,472,466,467,468,469,470,471,472,473,
836,837,497,498,499,500,501,502,503,504,505,497,498,499,500,501,502,503,497,498,499,500,501,502,503,497,498,499,500,501,502,503,497,498,499,500,501,502,503,504
</data>
 </layer>
 <objectgroup id="2" name="Objektebene 1">
  <object id="1" x="0" y="-32" width="1280" height="128"/>
  <object id="2" x="1120" y="96" width="224" height="32"/>
  <object id="3" x="1152" y="128" width="128" height="480"/>
  <object id="4" x="992" y="448" width="288" height="96"/>
  <object id="5" x="1024" y="544" width="256" height="32"/>
  <object id="6" x="1088" y="608"/>
  <object id="7" x="1056" y="576" width="128" height="32"/>
  <object id="8" x="1120" y="416" width="32" height="32"/>
  <object id="9" x="832" y="224" width="64" height="320"/>
  <object id="10" x="864" y="192" width="64" height="96"/>
  <object id="11" x="960" y="256"/>
  <object id="12" x="928" y="192" width="256" height="64"/>
  <object id="13" x="864" y="544" width="32" height="32"/>
  <object id="14" x="-32" y="736" width="1312" height="64"/>
  <object id="15" x="0" y="192" width="128" height="544"/>
  <object id="16" x="0" y="96" width="64" height="96"/>
  <object id="17" x="128" y="192" width="576" height="64"/>
  <object id="18" x="608" y="256" width="96" height="288"/>
  <object id="19" x="576" y="288" width="96" height="288"/>
  <object id="20" x="576" y="576" width="32" height="32"/>
  <object id="21" x="256" y="416" width="192" height="32"/>
  <object id="22" x="128" y="448" width="224" height="32"/>
  <object id="23" x="128" y="480" width="96" height="32"/>
  <object id="24" x="128" y="224" width="32" height="128"/>
  <object id="25" x="160" y="256" width="32" height="64"/>
  <object id="26" x="192" y="256" width="64" height="32"/>
  <object id="27" x="128" y="672" width="96" height="64"/>
  <object id="28" x="224" y="704" width="32" height="32"/>
  <object id="29" x="857.839" y="965.721"/>
 </objectgroup>
</map>
