<?xml version="1.0" encoding="UTF-8"?>
<map version="1.10" tiledversion="1.12.2" orientation="orthogonal" renderorder="right-down" width="70" height="10" tilewidth="160" tileheight="160" infinite="0" nextlayerid="4" nextobjectid="5">
 <tileset firstgid="1" source="bgroad1.tsx"/>
 <tileset firstgid="163" source="pixil-frame-0 13.tsx"/>
 <tileset firstgid="325" source="pixil-frame-0 19.tsx"/>
 <tileset firstgid="461" source="pixil-frame-0 20.tsx"/>
 <tileset firstgid="597" source="pixil-frame-0 18.tsx"/>
 <layer id="1" name="Kachelebene 1" width="70" height="10">
  <data encoding="csv">
488,488,503,588,589,416,417,274,571,572,274,439,440,274,274,274,274,569,570,274,571,572,505,486,503,506,486,471,505,503,588,589,469,504,506,416,417,274,274,274,569,570,489,506,487,506,505,503,274,274,588,589,505,470,571,572,274,569,570,469,471,504,456,457,505,504,488,416,417,469,
606,607,608,609,610,611,612,613,614,614,606,607,608,609,610,611,612,613,614,607,608,609,610,611,612,613,614,608,609,610,611,612,613,614,608,609,610,611,612,613,614,608,609,610,611,612,613,614,608,609,610,611,612,613,614,608,609,610,611,612,613,614,607,608,609,610,611,612,613,614,
616,616,616,616,616,616,616,616,616,616,616,616,616,616,616,616,616,616,616,616,616,616,616,616,616,616,616,616,616,616,616,616,616,616,616,616,616,616,616,616,616,616,616,616,616,616,616,616,616,616,616,616,616,616,616,616,616,616,616,616,616,616,616,616,616,617,618,619,620,621,
625,625,625,625,625,625,625,625,625,625,625,625,625,625,625,625,625,625,625,625,625,625,625,625,625,625,625,625,625,625,625,625,625,625,625,625,625,625,625,625,625,625,625,625,625,625,625,625,625,625,625,625,625,625,625,625,625,625,625,625,625,625,625,625,625,626,627,628,629,630,
634,634,634,634,634,634,634,634,634,634,634,634,634,634,634,634,634,634,634,634,634,634,634,634,634,634,634,634,634,634,634,634,634,634,634,634,634,634,634,634,634,634,634,634,634,634,634,634,634,634,634,634,634,634,634,634,634,634,634,634,634,634,634,634,634,635,636,637,638,639,
643,643,643,643,643,643,643,643,643,643,643,643,643,643,643,643,643,643,643,643,643,643,643,643,643,643,643,643,643,643,643,643,643,643,643,643,643,643,643,643,643,643,643,643,643,643,643,643,643,643,643,643,643,643,643,643,643,643,643,643,643,643,643,643,643,644,645,646,647,648,
652,652,652,652,652,652,652,652,652,652,652,652,652,652,652,652,652,652,652,652,652,652,652,652,652,652,652,652,652,652,652,652,652,652,652,652,652,652,652,652,652,652,652,652,652,652,652,652,652,652,652,652,652,652,652,652,652,652,652,652,652,652,652,652,652,653,654,655,656,657,
661,661,661,661,661,661,661,661,661,661,661,661,661,661,661,661,661,661,661,661,661,661,661,661,661,661,661,661,661,661,661,661,661,661,661,661,661,661,661,661,661,661,661,661,661,661,661,661,661,661,661,661,661,661,661,661,661,661,661,661,661,661,661,661,661,662,663,664,665,666,
268,268,268,268,268,268,269,270,268,269,270,268,269,268,269,270,268,269,270,268,269,270,268,269,270,268,269,270,268,269,270,268,269,270,268,269,270,268,269,270,268,269,270,268,269,270,268,269,270,268,269,270,268,269,270,268,269,270,268,269,270,268,269,270,268,269,270,268,269,270,
274,274,274,274,274,481,482,483,274,274,274,274,274,274,274,274,274,275,495,496,495,496,533,497,274,274,274,274,274,274,274,274,274,274,275,275,495,496,497,275,275,275,275,275,275,275,275,275,275,275,275,275,275,275,275,275,275,275,275,274,274,274,501,502,285,274,274,274,521,522
</data>
 </layer>
 <objectgroup id="2" name="Objektebene 1">
  <object id="1" x="-12.6582" y="-37.9747" width="11544.3" height="113.924"/>
  <object id="2" x="-189.873" y="1506.33" width="12696.2" height="240.506"/>
  <object id="4" x="1164.56" y="-1569.62"/>
 </objectgroup>
 <objectgroup id="3"/>
</map>
